X:1
T:Török induló
T:W. A. Mozart
%%score { ( 1 3 ) | 2 }
L:1/8
Q:1/4=120
M:2/4
K:C
V:1 treble nm="no name"
V:3 treble 
V:2 bass 
V:1
!p!"^Allegretto" (!4!B/A/^G/!1!A/ | !>!!3!c) z (!3!d/c/B/c/ | !4!e) z (!4!f/e/^d/!1!e/ | %3
 !>!!4!b/a/^g/a/ !>!b/a/g/a/ | !>!c'2) .!2!a.!4!c' |!mf!({!2!=ga)} .b.!2!!4![^fa] .[eg].[fa] | %6
({!2!ga)} .b!2!!4![^fa] .[eg].[fa] |!>(!{ga} .b.!4![^fa] .[eg].!2!!4![^df]!>)! | e2 :: %9
!<(! .!1!!3![ce].[=d=f]!<)! | .!1!!3![eg].[eg] (!4!a/g/f/e/) | %11
!>(! (!2!BG)!p! .[ce]!<(!.[df]!>)!!<)! | .[eg].[eg] (!4!a/g/)f/e/ | %13
 .!2!!4![Bd]2!f! .!1!!3![Ac]!<(!.[Bd]!<)! | .!1!!3![ce].[ce] (!4!f/e/d/c/) | %15
!>(! (!2!^G.E)!p!!<(! .[Ac]!<)!.[Bd]!>)! | .[ce].[ce] (f/e/d/c/) | !2!!4![^GB]2 (B/A/G/A/ | %18
 !>!c) z (d/c/B/c/ | !>!e) z (f/e/^d/e/) |[K:treble] (!>!b/a/^g/a/ !>!b/a/g/a/ | %21
!<(! c'2) .!2!a.b!<)! |!mf! .c'.b .!1!a.!2!^g | .a.e .!4!f.!2!d | c2 (!2!B3/2A/4B/4 |!p! A2) :: %26
[K:A][K:treble]!f!!<(! .[Aa].[Bb]!<)! | !^![cc']2 .[Aa].[Bb] | .[cc']!<(!.[Bb] .[Aa].[Gg] | %29
 .[Ff].[Gg] .[Aa].[Bb]!<)! |!>(! .!4![Gg]!>)!.[Ee]!<(! .!1![Aa].[Bb]!<)! | !^![cc']2 .[Aa].[Bb] | %32
[K:treble]!<(! .[cc'].[Bb] .[Aa].[Gg]!<)! | .[Ff]!>(!.[Bb] .[Gg].[Ee]!>)! | !^![Aa]2 :| %35
V:2
 z2 | (!>!!5!A,[CE]) .[CE].[CE] | (!>!A,[CE]) .[CE].[CE] | .A,.[CE] .A,.[CE] | %4
 (A,[CE]) .[CE].[CE] | .E,.[B,E] .[B,E].[B,E] | !^!E,.[B,E] .[B,E].[B,E] | !^!E,.[B,E] .B,,.B, | %8
 E,2 ::!f! z2 | .C,.C .E,.E | G,2 z2 | .C,.C .E,.E | G,2 z2 | .A,,.A, .E,.C | .E,2 z2 | %16
 .A,,.A, .E,.C | E,2 z2 | ((!>!A,[CE])) .[CE].[CE] | (!>!A,[CE]) .[CE].[CE] | %20
[K:bass] .A,.[CE] .A,.[CE] |!ped! (F,[A,^D]) .[A,D].[A,D]!ped-up! | .E,.[A,E] .=D,.[F,B,] | %23
 C,.[E,A,] .D,.[F,B,] | .[E,A,].[E,A,] .[E,^G,].[E,G,] | [A,,A,]2 ::[K:A][K:bass] z2 | %27
!ped!({!^!!5!A,,!3!C,)E,} .A,.!3!A, .!2!A,.!1!A,!ped-up! | %28
!ped!({!^!A,,C,)E,} .A,.A, .A,.A,!ped-up! | %29
!ped!({!^!!5!D,,!3!F,,)A,,} .!1!D,.!2!D,!ped!({!^!!5!D,,!4!F,,)A,,} .!1!^D,.!2!D,!ped-up! | %30
!ped!({!^!!5!E,,!3!G,,)B,,} .!1!E,.!2!E, .!1!E,.!2!E,!ped-up! | %31
!ped!({!^!A,,C,)E,} .A,.A, .A,.A,!ped-up! |[K:bass]!ped!({!^!A,,C,)E,} .A,.A, .A,.A,!ped-up! | %33
!ped!({!^!D,,F,,)A,,} .D,.D,!ped!({!^!E,,G,,)B,,} .E,.E,!ped-up! | !^!A,,2 :| %35
V:3
 x2 | x4 | x4 | x4 | x4 | x4 | x4 | x4 | x2 :: x2 | x4 | !4!d2 x2 | x4 | x4 | x4 | !4!B2 x2 | x4 | %17
 x4 | x4 | x4 |[K:treble] x4 | x4 | x4 | x4 | x4 | x2 ::[K:A][K:treble] x2 | x4 | x4 | x4 | x4 | %31
 x4 |[K:treble] x4 | x4 | x2 :| %35

